X:1
T:Solo Called ye Cuckoo. SenH.001, A
T:Solo Called ye Cuckoo. SenH.001, A
T:in Hand A "Humphrey Senhouse"
C:in Hand A
C:"Humphrey Senhouse"
L:1/8
Q:1/4=100
M:4/4
K:C
V:1 treble 
V:1
"^LARGO" z2 z g e2 z g | e2 z g egeg | c/d/e/f/ g/G/A/B/ c2 z c' | a2 z c' a2 z c' | %4
 ac'ac' f/g/a/b/ c'/d'/a/b/ | c'd' b2 z d' b2 | z d' bd'bd' g/a/b/c'/ | %7
 d'/a/c'/b/ a>g g2 z/ g/a/b/ | c'b/a/ g/a/g/f/ e/f/e/d/ c/d/e/f/ | %9
 g/a/f/g/ e/g/d/g/ c/g/B/g/ A/g/f/e/ | d/f/c/f/ B/f/A/f/ G/f/e/d/ c/d/e/f/ | %11
 g/a/f/g/ e/g/d/g/ c/g/B/g/ A/g/f/e/ | d/f/c/f/ B/f/A/f/ G/f/e/d/ c2 || %13
[M:2/2] c/d/e/f/ g/a/g/f/ e/f/e/d/ c/d/e/f/ | g2 G/A/B/c/ d/e/d/c/ B/c/B/A/ | %15
 G/A/B/c/ d/e/f/g/ e/c/d/e/ f/g/a/b/ | c'/c/e/c/ g/G/B/G/ c2 z2 | %17
 g/a/b/c'/ d'/e'/d'/c'/ b/c'/b/a/ g/a/b/g/ | c'b/a/ g/a/g/f/ e/f/e/d/ c/d/e/c/ | %19
 fe/d/ c/_B/A/G/ F/G/A/B/ c/d/e/c/ | f/c/A/c/ f/c/A/c/ f/c/A/c/ f/c/A/c/ | %21
 B/d/g/d/ B/d/g/d/ B/d/g/d/ B/d/g/d/ | e/c/d/e/ f/g/a/b/ c/b/c/a/ bg | %23
 f/g/e/g/ d/g/c/g/ B/g/A/g/ G/g/f/e/ | d/e/f/g/ e/c/d/e/ f/e/f/g/ a/g/a/b/ | %25
 c'/a/b/c'/ b/g/a/b/ c'/g/f/e/ d2 | c2 z2 G/c/e/c/ G/c/e/c/ | G/c/e/c/ G/c/e/c/ G/c/e/c/ G/c/e/c/ | %28
 A/c/f/c/ A/c/f/c/ A/c/f/c/ A/c/f/c/ | B/d/g/d/ B/d/g/d/ B/d/g/d/ B/d/g/d/ | %30
 d/f/b/f/ d/f/b/f/ d/f/b/f/ d/f/b/f/ | a/g/f/e/ d/c/B/A/ G2 z/ A/B/c/ d/e/f/g/- | %32
 g/a/g/f/ e/f/e/d/ c/d/c/B/ A/B/A/G/ F2 z/ G/A/B/ |"^sic" c/d/4e/4 f/>g/ d/e/4d/4 c3 B | c4 |] %35

